austria/municipalities/41109.svg

<?xml version="1.0" encoding="UTF-8"?>
<!DOCTYPE svg PUBLIC "-//W3C//DTD SVG 1.1//EN" "http://www.w3.org/Graphics/SVG/1.1/DTD/svg11.dtd">
<svg xmlns="http://www.w3.org/2000/svg" version="1.1" width="166px" height="207px" style="shape-rendering:geometricPrecision; text-rendering:geometricPrecision; image-rendering:optimizeQuality; fill-rule:evenodd; clip-rule:evenodd" xmlns:xlink="http://www.w3.org/1999/xlink">
<g><path style="opacity:1" fill="#000000" d="M -0.5,-0.5 C 54.8333,-0.5 110.167,-0.5 165.5,-0.5C 165.5,44.1667 165.5,88.8333 165.5,133.5C 157.53,172.472 134.197,196.805 95.5,206.5C 86.8333,206.5 78.1667,206.5 69.5,206.5C 29.6208,196.954 6.2875,171.954 -0.5,131.5C -0.5,87.5 -0.5,43.5 -0.5,-0.5 Z"/></g>
<g><path style="opacity:1" fill="#cb0000" d="M 3.5,3.5 C 56.1667,3.5 108.833,3.5 161.5,3.5C 161.667,47.8346 161.5,92.1679 161,136.5C 160.251,140.251 159.251,143.918 158,147.5C 155.959,148.423 153.792,148.756 151.5,148.5C 151.442,142.081 152.109,135.747 153.5,129.5C 151.436,129.687 149.436,130.187 147.5,131C 146.663,132.011 146.33,133.178 146.5,134.5C 144.5,134.5 142.5,134.5 140.5,134.5C 140.64,136.124 139.973,137.29 138.5,138C 134.049,139.974 129.382,140.807 124.5,140.5C 124.5,137.833 124.5,135.167 124.5,132.5C 122.833,132.5 121.167,132.5 119.5,132.5C 119.5,129.833 119.5,127.167 119.5,124.5C 117.856,124.714 116.356,124.38 115,123.5C 113.846,124.743 112.512,125.743 111,126.5C 109.556,124.845 107.722,124.178 105.5,124.5C 104.606,131.056 103.606,131.056 102.5,124.5C 99.2317,123.513 95.8984,123.18 92.5,123.5C 92.7778,125.346 92.1112,126.68 90.5,127.5C 88.4167,123.258 85.5833,122.592 82,125.5C 80.951,123.893 79.451,123.227 77.5,123.5C 77.6495,124.552 77.4828,125.552 77,126.5C 74.7526,123.491 72.4192,123.158 70,125.5C 68.1516,122.959 65.6516,121.959 62.5,122.5C 62.7022,124.989 62.2022,127.323 61,129.5C 58.646,123.905 54.4793,122.072 48.5,124C 45.9257,129.514 42.9257,134.681 39.5,139.5C 32.8213,137.885 26.488,135.385 20.5,132C 18.6473,129.429 16.9806,126.762 15.5,124C 13.0982,123.186 10.7649,123.353 8.5,124.5C 13.0188,135.893 18.0188,147.06 23.5,158C 22.1667,158.667 20.8333,158.667 19.5,158C 17.3204,154.207 14.6537,153.707 11.5,156.5C 10.914,156.291 10.414,155.957 10,155.5C 7.42185,149.009 5.42185,142.343 4,135.5C 3.50001,91.5013 3.33334,47.5013 3.5,3.5 Z"/></g>
<g><path style="opacity:1" fill="#020202" d="M 76.5,9.5 C 90.0316,9.20244 95.3649,15.7024 92.5,29C 96.6383,38.7766 100.638,48.6099 104.5,58.5C 109.802,59.6628 115.136,59.8295 120.5,59C 121.259,54.5288 122.092,50.0288 123,45.5C 128.75,44.3594 134.584,44.1928 140.5,45C 142.675,49.5259 144.008,54.3592 144.5,59.5C 148.305,59.6425 149.971,61.6425 149.5,65.5C 149.167,66.8333 148.833,68.1667 148.5,69.5C 146.851,70.706 145.351,72.0394 144,73.5C 143.668,77.3473 142.502,80.8473 140.5,84C 134.509,84.4995 128.509,84.6662 122.5,84.5C 122.414,80.1434 122.08,75.81 121.5,71.5C 117.774,71.1774 114.107,71.5108 110.5,72.5C 116.316,86.1364 122.149,99.803 128,113.5C 128.781,114.944 128.614,116.277 127.5,117.5C 120.403,106.407 113.736,95.0733 107.5,83.5C 106.009,82.7564 104.509,82.0897 103,81.5C 101.875,78.1098 100.375,74.9431 98.5,72C 87.152,71.1675 75.8187,71.3342 64.5,72.5C 62.7698,75.3699 61.4365,78.3699 60.5,81.5C 58.396,81.2011 56.396,81.5344 54.5,82.5C 47.1986,94.965 39.6986,107.298 32,119.5C 31.3333,118.167 31.3333,116.833 32,115.5C 38.9943,101.014 45.8277,86.5143 52.5,72C 44.5,71.6667 36.5,71.3333 28.5,71C 25.9107,67.4024 25.9107,63.7357 28.5,60C 38.5166,59.8322 48.5166,59.3322 58.5,58.5C 62.6371,49.7261 66.6371,40.8927 70.5,32C 65.6642,22.6744 67.6642,15.1744 76.5,9.5 Z"/></g>
<g><path style="opacity:1" fill="#fefffe" d="M 77.5,11.5 C 89.7387,11.8833 93.7387,17.7166 89.5,29C 94.1667,39 98.8333,49 103.5,59C 100.833,59.6667 98.1667,59.6667 95.5,59C 91.2986,51.0908 87.4653,42.9241 84,34.5C 74.5919,34.4255 69.9252,29.7588 70,20.5C 71.5877,16.6086 74.0877,13.6086 77.5,11.5 Z"/></g>
<g><path style="opacity:1" fill="#000000" d="M 79.5,14.5 C 89.0928,17.1757 90.7595,22.3424 84.5,30C 76,31.5 72.5,28 74,19.5C 75.4055,17.2563 77.2389,15.5897 79.5,14.5 Z"/></g>
<g><path style="opacity:1" fill="#fefffe" d="M 79.5,16.5 C 86.9019,18.2836 88.2353,22.117 83.5,28C 76.4403,29.2714 73.9403,26.4381 76,19.5C 77.5185,18.8366 78.6851,17.8366 79.5,16.5 Z"/></g>
<g><path style="opacity:1" fill="#000000" d="M 79.5,20.5 C 81.1534,19.2006 82.6534,19.5339 84,21.5C 84.289,25.7085 82.4557,27.0419 78.5,25.5C 76.8269,23.2385 77.1602,21.5718 79.5,20.5 Z"/></g>
<g><path style="opacity:1" fill="#fefffe" d="M 79.5,20.5 C 81.4646,20.9483 81.7979,21.9483 80.5,23.5C 79.6143,22.675 79.281,21.675 79.5,20.5 Z"/></g>
<g><path style="opacity:1" fill="#fefffe" d="M 72.5,33.5 C 75.1743,34.5018 77.5076,36.0018 79.5,38C 75.996,45.1698 72.6627,52.3365 69.5,59.5C 66.4281,59.8174 63.4281,59.4841 60.5,58.5C 64.7702,50.293 68.7702,41.9596 72.5,33.5 Z"/></g>
<g><path style="opacity:1" fill="#cb0000" d="M 81.5,36.5 C 85.8933,43.2645 89.56,50.5978 92.5,58.5C 85.5,59.8333 78.5,59.8333 71.5,58.5C 75.416,51.3415 78.7493,44.0082 81.5,36.5 Z"/></g>
<g><path style="opacity:1" fill="#fefffe" d="M 124.5,46.5 C 129.833,46.5 135.167,46.5 140.5,46.5C 143.166,58.4959 143.166,70.4959 140.5,82.5C 135.167,82.5 129.833,82.5 124.5,82.5C 124.04,75.9856 123.373,69.4856 122.5,63C 123.127,57.485 123.794,51.985 124.5,46.5 Z"/></g>
<g><path style="opacity:1" fill="#fe9900" d="M 29.5,61.5 C 59.8333,61.5 90.1667,61.5 120.5,61.5C 120.292,63.9201 120.626,66.2534 121.5,68.5C 90.5072,69.4998 59.5072,69.8332 28.5,69.5C 28.2786,66.7212 28.612,64.0545 29.5,61.5 Z"/></g>
<g><path style="opacity:1" fill="#fe9900" d="M 144.5,61.5 C 145.5,61.5 146.5,61.5 147.5,61.5C 147.663,63.8568 147.497,66.1902 147,68.5C 146.586,68.9574 146.086,69.2907 145.5,69.5C 144.52,66.9135 144.187,64.2469 144.5,61.5 Z"/></g>
<g><path style="opacity:1" fill="#fefffe" d="M 54.5,71.5 C 57.1873,71.3359 59.854,71.5026 62.5,72C 61.1667,74.3333 59.8333,76.6667 58.5,79C 56.7818,79.346 55.1151,79.846 53.5,80.5C 50.2562,86.6548 46.7562,92.6548 43,98.5C 46.1275,89.3099 49.9609,80.3099 54.5,71.5 Z"/></g>
<g><path style="opacity:1" fill="#fefffe" d="M 101.5,71.5 C 104.119,71.2317 106.619,71.565 109,72.5C 113.962,83.0844 118.295,93.751 122,104.5C 117.5,96.8333 113,89.1667 108.5,81.5C 104.025,79.862 101.692,76.5286 101.5,71.5 Z"/></g>
<g><path style="opacity:1" fill="#fefffe" d="M 64.5,124.5 C 65.5,124.5 66.5,124.5 67.5,124.5C 67.5,125.5 67.5,126.5 67.5,127.5C 69.8333,126.833 72.1667,126.167 74.5,125.5C 75.0916,128.127 75.4249,130.794 75.5,133.5C 73.712,133.215 72.0453,133.548 70.5,134.5C 71.8034,136.589 71.3034,138.256 69,139.5C 68.5045,137.527 68.3379,135.527 68.5,133.5C 66.5,133.5 64.5,133.5 62.5,133.5C 62.7556,130.402 63.4222,127.402 64.5,124.5 Z"/></g>
<g><path style="opacity:1" fill="#fe9900" d="M 11.5,125.5 C 12.552,125.351 13.552,125.517 14.5,126C 19.6859,136.547 24.6859,147.213 29.5,158C 28.5838,158.374 27.7504,158.874 27,159.5C 21.0163,148.533 15.8496,137.2 11.5,125.5 Z"/></g>
<g><path style="opacity:1" fill="#fefffe" d="M 48.5,125.5 C 54.8491,124.101 58.8491,126.434 60.5,132.5C 58.8513,133.648 57.3513,134.981 56,136.5C 55.51,135.207 55.3433,133.873 55.5,132.5C 52.5,132.5 49.5,132.5 46.5,132.5C 46.1658,129.812 46.8325,127.479 48.5,125.5 Z"/></g>
<g><path style="opacity:1" fill="#fefffe" d="M 83.5,125.5 C 84.8333,125.5 86.1667,125.5 87.5,125.5C 87.5,126.5 87.5,127.5 87.5,128.5C 88.5,128.5 89.5,128.5 90.5,128.5C 91.2309,130.599 91.2309,132.599 90.5,134.5C 88.9825,135.911 87.6492,135.744 86.5,134C 84.8333,133.333 83.1667,133.333 81.5,134C 82.7112,134.893 82.7112,135.726 81.5,136.5C 78.9645,134.6 77.2978,132.1 76.5,129C 77.3333,128.167 78.1667,127.333 79,126.5C 81.1216,129.183 82.6216,128.85 83.5,125.5 Z"/></g>
<g><path style="opacity:1" fill="#fefffe" d="M 93.5,125.5 C 96.1667,125.5 98.8333,125.5 101.5,125.5C 101.756,127.937 102.423,130.271 103.5,132.5C 101.922,133.298 100.256,133.798 98.5,134C 97.1192,140.02 96.4526,139.853 96.5,133.5C 94.4099,133.55 93.0766,132.55 92.5,130.5C 93.3094,128.929 93.6427,127.262 93.5,125.5 Z"/></g>
<g><path style="opacity:1" fill="#fefffe" d="M 106.5,125.5 C 108.257,126.292 109.591,127.625 110.5,129.5C 112.1,126.904 114.433,125.57 117.5,125.5C 117.244,127.792 117.577,129.959 118.5,132C 115.119,132.061 112.286,133.227 110,135.5C 108.893,135.415 107.893,135.081 107,134.5C 106.502,131.518 106.335,128.518 106.5,125.5 Z"/></g>
<g><path style="opacity:1" fill="#fefffe" d="M -0.5,131.5 C 6.2875,171.954 29.6208,196.954 69.5,206.5C 46.1667,206.5 22.8333,206.5 -0.5,206.5C -0.5,181.5 -0.5,156.5 -0.5,131.5 Z"/></g>
<g><path style="opacity:1" fill="#fe9900" d="M 147.5,132.5 C 148.5,132.5 149.5,132.5 150.5,132.5C 150.052,138.531 149.385,144.531 148.5,150.5C 151.518,150.335 154.518,150.502 157.5,151C 156.178,153.319 154.678,155.486 153,157.5C 151.333,156.5 149.667,155.5 148,154.5C 146.739,154.759 145.739,155.426 145,156.5C 146.362,148.634 147.195,140.634 147.5,132.5 Z"/></g>
<g><path style="opacity:1" fill="#fefffe" d="M 165.5,133.5 C 165.5,157.833 165.5,182.167 165.5,206.5C 142.167,206.5 118.833,206.5 95.5,206.5C 134.197,196.805 157.53,172.472 165.5,133.5 Z"/></g>
<g><path style="opacity:1" fill="#fe9900" d="M 138.5,142.5 C 140.465,142.948 140.798,143.948 139.5,145.5C 136.418,146.635 133.418,147.635 130.5,148.5C 101.5,148.5 72.5,148.5 43.5,148.5C 40.7273,147.343 37.7273,146.676 34.5,146.5C 32.7857,145.262 30.7857,144.595 28.5,144.5C 26.8113,143.696 25.1446,142.696 23.5,141.5C 22.6744,140.549 22.5078,139.549 23,138.5C 27.9931,141.942 33.4931,143.775 39.5,144C 33.3086,141.991 27.3086,139.491 21.5,136.5C 20.1667,135.833 20.1667,135.167 21.5,134.5C 27.8449,137.892 34.5116,140.392 41.5,142C 71.8333,142.667 102.167,142.667 132.5,142C 134.871,141.265 137.205,140.432 139.5,139.5C 139.833,139.833 140.167,140.167 140.5,140.5C 139.757,141.182 139.091,141.849 138.5,142.5 Z"/></g>
<g><path style="opacity:1" fill="#fefffe" d="M 44.5,134.5 C 47.8333,134.5 51.1667,134.5 54.5,134.5C 54.5,136.5 54.5,138.5 54.5,140.5C 50.5,140.5 46.5,140.5 42.5,140.5C 42.2525,138.142 42.9192,136.142 44.5,134.5 Z"/></g>
<g><path style="opacity:1" fill="#fefffe" d="M 72.5,134.5 C 74.5,134.5 76.5,134.5 78.5,134.5C 78.3249,137.329 79.6582,138.996 82.5,139.5C 78.8333,140.833 75.1667,140.833 71.5,139.5C 72.1667,138.833 72.8333,138.167 73.5,137.5C 72.8728,136.583 72.5394,135.583 72.5,134.5 Z"/></g>
<g><path style="opacity:1" fill="#fefffe" d="M 102.5,134.5 C 105.919,135.042 107.586,137.042 107.5,140.5C 104.5,140.5 101.5,140.5 98.5,140.5C 98.3666,137.413 99.6999,135.413 102.5,134.5 Z"/></g>
<g><path style="opacity:1" fill="#fefffe" d="M 114.5,134.5 C 117.167,134.5 119.833,134.5 122.5,134.5C 122.5,136.5 122.5,138.5 122.5,140.5C 117.833,140.5 113.167,140.5 108.5,140.5C 108.5,139.5 108.5,138.5 108.5,137.5C 110.5,137.5 112.5,137.5 114.5,137.5C 114.5,136.5 114.5,135.5 114.5,134.5 Z"/></g>
<g><path style="opacity:1" fill="#fefffe" d="M 58.5,135.5 C 61.1667,135.5 63.8333,135.5 66.5,135.5C 66.4208,136.93 66.7542,138.264 67.5,139.5C 63.5,140.833 59.5,140.833 55.5,139.5C 56.5244,138.148 57.5244,136.815 58.5,135.5 Z"/></g>
<g><path style="opacity:1" fill="#fefffe" d="M 83.5,136.5 C 85.7073,135.13 87.374,135.797 88.5,138.5C 90.2461,136.146 92.5794,135.146 95.5,135.5C 95.5,137.167 95.5,138.833 95.5,140.5C 91.8333,140.5 88.1667,140.5 84.5,140.5C 84.7678,138.901 84.4345,137.568 83.5,136.5 Z"/></g>
<g><path style="opacity:1" fill="#fe9900" d="M 142.5,136.5 C 143.675,136.281 144.675,136.614 145.5,137.5C 144.491,144.552 143.158,151.552 141.5,158.5C 141.167,157.833 140.833,157.167 140.5,156.5C 141.947,149.912 142.614,143.245 142.5,136.5 Z"/></g>
<g><path style="opacity:1" fill="#000000" d="M 138.5,142.5 C 136.22,144.223 133.553,144.889 130.5,144.5C 132.961,143.469 135.627,142.802 138.5,142.5 Z"/></g>
<g><path style="opacity:1" fill="#fe9900" d="M 28.5,144.5 C 30.1016,146.074 32.1016,146.741 34.5,146.5C 37.1709,148.118 40.1709,148.785 43.5,148.5C 63.3278,149.497 83.3278,150.164 103.5,150.5C 112.723,150.719 121.723,150.052 130.5,148.5C 132.5,148.5 134.5,148.5 136.5,148.5C 135.833,149.167 135.167,149.833 134.5,150.5C 102.502,151.825 70.502,151.825 38.5,150.5C 36.1617,148.96 33.4951,148.294 30.5,148.5C 28.6181,147.249 26.6181,146.082 24.5,145C 25.7932,144.51 27.1266,144.343 28.5,144.5 Z"/></g>
<g><path style="opacity:1" fill="#000000" d="M 28.5,144.5 C 30.7857,144.595 32.7857,145.262 34.5,146.5C 32.1016,146.741 30.1016,146.074 28.5,144.5 Z"/></g>
<g><path style="opacity:1" fill="#000000" d="M 130.5,144.5 C 128.708,145.309 126.708,145.809 124.5,146C 111.167,146.167 97.8333,146.333 84.5,146.5C 69.7816,146.633 55.1149,146.133 40.5,145C 70.4981,144.5 100.498,144.333 130.5,144.5 Z"/></g>
<g><path style="opacity:1" fill="#000000" d="M 34.5,146.5 C 37.7273,146.676 40.7273,147.343 43.5,148.5C 40.1709,148.785 37.1709,148.118 34.5,146.5 Z"/></g>
<g><path style="opacity:1" fill="#fe9900" d="M 136.5,148.5 C 137.531,147.751 138.698,147.085 140,146.5C 140.167,146.833 140.333,147.167 140.5,147.5C 139.311,148.429 137.978,148.762 136.5,148.5 Z"/></g>
<g><path style="opacity:1" fill="#fe9900" d="M 30.5,148.5 C 32.8383,150.04 35.5049,150.706 38.5,150.5C 39.9516,151.302 41.6183,151.802 43.5,152C 72.8333,152.667 102.167,152.667 131.5,152C 132.737,151.768 133.737,151.268 134.5,150.5C 135.93,150.579 137.264,150.246 138.5,149.5C 139.321,152.446 139.321,155.446 138.5,158.5C 136.473,158.662 134.473,158.495 132.5,158C 131.183,156.341 129.517,155.174 127.5,154.5C 123.979,156.847 120.145,158.514 116,159.5C 111.808,158.903 108.141,157.236 105,154.5C 101.69,157.294 97.8571,158.961 93.5,159.5C 89.9591,158.48 86.7924,156.814 84,154.5C 80.3622,156.984 76.3622,158.651 72,159.5C 67.8078,158.903 64.1412,157.236 61,154.5C 57.3622,156.984 53.3622,158.651 49,159.5C 44.8078,158.903 41.1412,157.236 38,154.5C 35.6827,155.826 33.3494,157.16 31,158.5C 29.5036,155.351 28.0036,152.184 26.5,149C 27.7932,148.51 29.1266,148.343 30.5,148.5 Z"/></g>
<g><path style="opacity:1" fill="#000000" d="M 30.5,148.5 C 33.4951,148.294 36.1617,148.96 38.5,150.5C 35.5049,150.706 32.8383,150.04 30.5,148.5 Z"/></g>
<g><path style="opacity:1" fill="#000000" d="M 43.5,148.5 C 72.5,148.5 101.5,148.5 130.5,148.5C 121.723,150.052 112.723,150.719 103.5,150.5C 83.3278,150.164 63.3278,149.497 43.5,148.5 Z"/></g>
<g><path style="opacity:1" fill="#000000" d="M 38.5,150.5 C 70.502,151.825 102.502,151.825 134.5,150.5C 133.737,151.268 132.737,151.768 131.5,152C 102.167,152.667 72.8333,152.667 43.5,152C 41.6183,151.802 39.9516,151.302 38.5,150.5 Z"/></g>
<g><path style="opacity:1" fill="#003266" d="M 14.5,156.5 C 22.2435,163.026 30.0768,163.026 38,156.5C 45.592,163.059 53.2586,163.059 61,156.5C 68.6314,163.046 76.298,163.046 84,156.5C 91.053,163.006 98.2197,163.006 105.5,156.5C 112.95,162.903 120.45,162.903 128,156.5C 134.73,161.752 141.564,161.752 148.5,156.5C 149.876,157.842 151.209,159.175 152.5,160.5C 137.087,187.96 113.587,201.96 82,202.5C 50.0621,201.543 26.5621,187.043 11.5,159C 12.9423,158.623 13.9423,157.79 14.5,156.5 Z"/></g>
</svg>

<svg xmlns="http://www.w3.org/2000/svg" width="166" height="207" style="shape-rendering:geometricPrecision;text-rendering:geometricPrecision;image-rendering:optimizeQuality;fill-rule:evenodd;clip-rule:evenodd"><path style="opacity:1" d="M-.5-.5h166v134c-7.97 38.972-31.303 63.305-70 73h-26c-39.88-9.546-63.212-34.546-70-75V-.5z"/><path style="opacity:1" fill="#cb0000" d="M3.5 3.5h158c.167 44.335 0 88.668-.5 133a82.049 82.049 0 0 1-3 11c-2.041.923-4.208 1.256-6.5 1a83.661 83.661 0 0 1 2-19 20.093 20.093 0 0 0-6 1.5c-.837 1.011-1.17 2.178-1 3.5h-6c.14 1.624-.527 2.79-2 3.5-4.451 1.974-9.118 2.807-14 2.5v-8h-5v-8c-1.644.214-3.144-.12-4.5-1a13.92 13.92 0 0 1-4 3c-1.444-1.655-3.278-2.322-5.5-2-.894 6.556-1.894 6.556-3 0a25.878 25.878 0 0 0-10-1c.278 1.846-.389 3.18-2 4-2.083-4.242-4.917-4.908-8.5-2-1.049-1.607-2.549-2.273-4.5-2a4.932 4.932 0 0 1-.5 3c-2.247-3.009-4.58-3.342-7-1-1.848-2.541-4.348-3.541-7.5-3 .202 2.489-.298 4.823-1.5 7-2.354-5.595-6.52-7.428-12.5-5.5a98.868 98.868 0 0 1-9 15.5 73.559 73.559 0 0 1-19-7.5 71.26 71.26 0 0 1-5-8c-2.402-.814-4.735-.647-7 .5a422.471 422.471 0 0 0 15 33.5c-1.333.667-2.667.667-4 0-2.18-3.793-4.846-4.293-8-1.5a3.647 3.647 0 0 1-1.5-1 120.468 120.468 0 0 1-6-20c-.5-43.999-.667-87.999-.5-132z"/><path style="opacity:1" fill="#020202" d="M76.5 9.5c13.532-.298 18.865 6.202 16 19.5 4.138 9.777 8.138 19.61 12 29.5a43.226 43.226 0 0 0 16 .5 461.955 461.955 0 0 1 2.5-13.5c5.75-1.14 11.584-1.307 17.5-.5 2.175 4.526 3.508 9.36 4 14.5 3.805.142 5.471 2.142 5 6l-1 4a31.192 31.192 0 0 0-4.5 4c-.332 3.847-1.498 7.347-3.5 10.5-5.991.5-11.991.666-18 .5-.086-4.357-.42-8.69-1-13a31.12 31.12 0 0 0-11 1 78850.617 78850.617 0 0 0 17.5 41c.781 1.444.614 2.777-.5 4a526.404 526.404 0 0 1-20-34 54.662 54.662 0 0 0-4.5-2 42.538 42.538 0 0 0-4.5-9.5 193.226 193.226 0 0 0-34 .5 39.065 39.065 0 0 0-4 9 9.864 9.864 0 0 0-6 1 1313.218 1313.218 0 0 1-22.5 37c-.667-1.333-.667-2.667 0-4A2541.203 2541.203 0 0 0 52.5 72l-24-1c-2.59-3.598-2.59-7.264 0-11a452.225 452.225 0 0 0 30-1.5 944.143 944.143 0 0 0 12-26.5c-4.836-9.326-2.836-16.826 6-22.5z"/><path style="opacity:1" fill="#fefffe" d="M77.5 11.5c12.239.383 16.239 6.217 12 17.5l14 30a16.25 16.25 0 0 1-8 0A276.015 276.015 0 0 1 84 34.5c-9.408-.075-14.075-4.741-14-14 1.588-3.891 4.088-6.891 7.5-9z"/><path style="opacity:1" d="M79.5 14.5c9.593 2.676 11.26 7.842 5 15.5-8.5 1.5-12-2-10.5-10.5 1.406-2.244 3.239-3.91 5.5-5z"/><path style="opacity:1" fill="#fefffe" d="M79.5 16.5c7.402 1.784 8.735 5.617 4 11.5-7.06 1.271-9.56-1.562-7.5-8.5 1.519-.663 2.685-1.663 3.5-3z"/><path style="opacity:1" d="M79.5 20.5c1.653-1.3 3.153-.966 4.5 1 .289 4.209-1.544 5.542-5.5 4-1.673-2.262-1.34-3.928 1-5z"/><path style="opacity:1" fill="#fefffe" d="M79.5 20.5c1.965.448 2.298 1.448 1 3-.886-.825-1.219-1.825-1-3zM72.5 33.5a19.352 19.352 0 0 1 7 4.5 610.906 610.906 0 0 0-10 21.5 21.12 21.12 0 0 1-9-1c4.27-8.207 8.27-16.54 12-25z"/><path style="opacity:1" fill="#cb0000" d="M81.5 36.5c4.393 6.764 8.06 14.098 11 22-7 1.333-14 1.333-21 0a161.696 161.696 0 0 0 10-22z"/><path style="opacity:1" fill="#fefffe" d="M124.5 46.5h16c2.666 11.996 2.666 23.996 0 36h-16a309.62 309.62 0 0 0-2-19.5 1122.49 1122.49 0 0 1 2-16.5z"/><path style="opacity:1" fill="#fe9900" d="M29.5 61.5h91a15.417 15.417 0 0 0 1 7c-30.993 1-61.993 1.333-93 1-.221-2.779.112-5.445 1-8zM144.5 61.5h3a24.935 24.935 0 0 1-.5 7c-.414.457-.914.79-1.5 1a16.874 16.874 0 0 1-1-8z"/><path style="opacity:1" fill="#fefffe" d="M54.5 71.5a32.437 32.437 0 0 1 8 .5l-4 7a28.04 28.04 0 0 0-5 1.5 241.927 241.927 0 0 1-10.5 18 198.57 198.57 0 0 1 11.5-27zM101.5 71.5c2.619-.268 5.119.065 7.5 1a324.438 324.438 0 0 1 13 32l-13.5-23c-4.475-1.638-6.808-4.971-7-10zM64.5 124.5h3v3l7-2a41.58 41.58 0 0 1 1 8c-1.788-.285-3.455.048-5 1 1.303 2.089.803 3.756-1.5 5a18.437 18.437 0 0 1-.5-6h-6a33.683 33.683 0 0 1 2-9z"/><path style="opacity:1" fill="#fe9900" d="M11.5 125.5a4.934 4.934 0 0 1 3 .5 949.5 949.5 0 0 1 15 32 9.457 9.457 0 0 0-2.5 1.5 260.21 260.21 0 0 1-15.5-34z"/><path style="opacity:1" fill="#fefffe" d="M48.5 125.5c6.35-1.399 10.35.934 12 7a25.534 25.534 0 0 0-4.5 4 8.435 8.435 0 0 1-.5-4h-9c-.334-2.688.333-5.021 2-7zM83.5 125.5h4v3h3c.73 2.099.73 4.099 0 6-1.517 1.411-2.85 1.244-4-.5-1.667-.667-3.333-.667-5 0 1.211.893 1.211 1.726 0 2.5-2.535-1.9-4.202-4.4-5-7.5l2.5-2.5c2.122 2.683 3.622 2.35 4.5-1zM93.5 125.5h8a21.028 21.028 0 0 0 2 7 14.72 14.72 0 0 1-5 1.5c-1.38 6.02-2.047 5.853-2-.5-2.09.05-3.423-.95-4-3a9.107 9.107 0 0 0 1-5zM106.5 125.5c1.757.792 3.091 2.125 4 4 1.6-2.596 3.933-3.93 7-4-.256 2.292.077 4.459 1 6.5-3.381.061-6.214 1.227-8.5 3.5a6.293 6.293 0 0 1-3-1 40.914 40.914 0 0 1-.5-9zM-.5 131.5c6.787 40.454 30.12 65.454 70 75h-70v-75z"/><path style="opacity:1" fill="#fe9900" d="M147.5 132.5h3a247.906 247.906 0 0 1-2 18 40.914 40.914 0 0 1 9 .5 44.764 44.764 0 0 1-4.5 6.5l-5-3c-1.261.259-2.261.926-3 2a180.058 180.058 0 0 0 2.5-24z"/><path style="opacity:1" fill="#fefffe" d="M165.5 133.5v73h-70c38.697-9.695 62.03-34.028 70-73z"/><path style="opacity:1" fill="#fe9900" d="M138.5 142.5c1.965.448 2.298 1.448 1 3a146.84 146.84 0 0 1-9 3h-87c-2.773-1.157-5.773-1.824-9-2-1.714-1.238-3.714-1.905-6-2a31.638 31.638 0 0 1-5-3c-.826-.951-.992-1.951-.5-3 4.993 3.442 10.493 5.275 16.5 5.5a120.489 120.489 0 0 1-18-7.5c-1.333-.667-1.333-1.333 0-2a80.553 80.553 0 0 0 20 7.5c30.333.667 60.667.667 91 0a87.287 87.287 0 0 0 7-2.5l1 1a31.147 31.147 0 0 0-2 2z"/><path style="opacity:1" fill="#fefffe" d="M44.5 134.5h10v6h-12c-.248-2.358.42-4.358 2-6zM72.5 134.5h6c-.175 2.829 1.158 4.496 4 5-3.667 1.333-7.333 1.333-11 0l2-2a5.577 5.577 0 0 1-1-3zM102.5 134.5c3.419.542 5.086 2.542 5 6h-9c-.133-3.087 1.2-5.087 4-6zM114.5 134.5h8v6h-14v-3h6v-3zM58.5 135.5h8a6.846 6.846 0 0 0 1 4c-4 1.333-8 1.333-12 0a494.818 494.818 0 0 0 3-4zM83.5 136.5c2.207-1.37 3.874-.703 5 2 1.746-2.354 4.08-3.354 7-3v5h-11c.268-1.599-.066-2.932-1-4z"/><path style="opacity:1" fill="#fe9900" d="M142.5 136.5c1.175-.219 2.175.114 3 1a231.986 231.986 0 0 1-4 21l-1-2a86.13 86.13 0 0 0 2-20z"/><path style="opacity:1" d="M138.5 142.5c-2.28 1.723-4.947 2.389-8 2 2.461-1.031 5.127-1.698 8-2z"/><path style="opacity:1" fill="#fe9900" d="M28.5 144.5c1.602 1.574 3.602 2.241 6 2 2.67 1.618 5.67 2.285 9 2 19.828.997 39.828 1.664 60 2 9.223.219 18.223-.448 27-2h6l-2 2a1159.742 1159.742 0 0 1-96 0c-2.338-1.54-5.005-2.206-8-2a60.733 60.733 0 0 0-6-3.5 8.43 8.43 0 0 1 4-.5z"/><path style="opacity:1" d="M28.5 144.5c2.286.095 4.286.762 6 2-2.398.241-4.398-.426-6-2zM130.5 144.5c-1.792.809-3.792 1.309-6 1.5l-40 .5a509.449 509.449 0 0 1-44-1.5c29.998-.5 59.998-.667 90-.5zM34.5 146.5c3.227.176 6.227.843 9 2-3.33.285-6.33-.382-9-2z"/><path style="opacity:1" fill="#fe9900" d="M136.5 148.5a19.602 19.602 0 0 1 3.5-2l.5 1c-1.189.929-2.522 1.262-4 1zM30.5 148.5c2.338 1.54 5.005 2.206 8 2 1.452.802 3.118 1.302 5 1.5 29.333.667 58.667.667 88 0 1.237-.232 2.237-.732 3-1.5a6.846 6.846 0 0 0 4-1c.821 2.946.821 5.946 0 9a18.453 18.453 0 0 1-6-.5 10.502 10.502 0 0 0-5-3.5 35.297 35.297 0 0 1-11.5 5c-4.192-.597-7.859-2.264-11-5-3.31 2.794-7.143 4.461-11.5 5-3.54-1.02-6.708-2.686-9.5-5a31.844 31.844 0 0 1-12 5c-4.192-.597-7.859-2.264-11-5a31.844 31.844 0 0 1-12 5c-4.192-.597-7.859-2.264-11-5-2.317 1.326-4.65 2.66-7 4a4345.522 4345.522 0 0 1-4.5-9.5 8.43 8.43 0 0 1 4-.5z"/><path style="opacity:1" d="M30.5 148.5c2.995-.206 5.662.46 8 2-2.995.206-5.662-.46-8-2zM43.5 148.5h87c-8.777 1.552-17.777 2.219-27 2a1787.512 1787.512 0 0 1-60-2z"/><path style="opacity:1" d="M38.5 150.5a1159.742 1159.742 0 0 0 96 0c-.763.768-1.763 1.268-3 1.5-29.333.667-58.667.667-88 0-1.882-.198-3.548-.698-5-1.5z"/><path style="opacity:1" fill="#003266" d="M14.5 156.5c7.744 6.526 15.577 6.526 23.5 0 7.592 6.559 15.259 6.559 23 0 7.631 6.546 15.298 6.546 23 0 7.053 6.506 14.22 6.506 21.5 0 7.45 6.403 14.95 6.403 22.5 0 6.73 5.252 13.564 5.252 20.5 0a221.826 221.826 0 0 1 4 4c-15.413 27.46-38.913 41.46-70.5 42-31.938-.957-55.438-15.457-70.5-43.5 1.442-.377 2.442-1.21 3-2.5z"/></svg>
